X: 307
T: Pao xiuqiu
L: 1/8
M: 3/8
K: G
d d g [I:setbarnb 1]| 
g B d | 
e d B | 
A A D | 
d d g | 
g B d | 
e d B | 
A3 | 
A d d | 
g e d | 
d B A | 
G G E | 
B A A | 
D G B | 
A A E | 
D3 |]

@@@ Tune index: 9181
